X: 4131
T: Blue Bike, The
R: reel
M: 4/4
K: Gmajor
|:B3G AGFE|DFAF GBdB|cecA BdBG|AGFG AcBA|
G3B AFGE|DFAF GBdB|cecA BdBG|AGFA BGG2:|
|:Bfgf eBB2|eBgB eBB2|cAA2 BGG2|AGFG AcBA|
Bfgf eBB2|eBgB eBB2|cecA BdBG|AGFA BG G2:|

